svgs/light/car-mirrors.svg

<svg xmlns="http://www.w3.org/2000/svg" viewBox="0 0 576 512"><!--! Font Awesome Pro 6.4.2 by @fontawesome - https://fontawesome.com License - https://fontawesome.com/license (Commercial License) Copyright 2023 Fonticons, Inc. --><path d="M191.6 64c-21.2 0-39.9 13.9-46 34.2l-28.3 94.4c3.5-.4 7.1-.6 10.7-.6H448c3.6 0 7.2 .2 10.7 .6L430.4 98.2c-6.1-20.3-24.8-34.2-46-34.2H191.6zM106.7 227.9l-.5-.1C81.6 236.7 64 260.3 64 288v96H512V288c0-27.7-17.6-51.3-42.3-60.2l-.5 .1-.1-.3c-6.6-2.3-13.8-3.6-21.2-3.6H128c-7.4 0-14.5 1.3-21.2 3.6l-.1 .3zM56.4 224H32c-8.8 0-16-7.2-16-16s7.2-16 16-16H84.1L115 89c10.2-33.8 41.3-57 76.6-57H384.4c35.3 0 66.5 23.2 76.6 57l30.9 103H544c8.8 0 16 7.2 16 16s-7.2 16-16 16H519.6c15.2 17 24.4 39.4 24.4 64v96 16 16 48c0 8.8-7.2 16-16 16s-16-7.2-16-16V416H64v48c0 8.8-7.2 16-16 16s-16-7.2-16-16V416 400 384 288c0-24.6 9.2-47 24.4-64zM112 296a24 24 0 1 1 48 0 24 24 0 1 1 -48 0zm328-24a24 24 0 1 1 0 48 24 24 0 1 1 0-48z"/></svg>

<svg xmlns="http://www.w3.org/2000/svg" viewBox="0 0 576 512"><!--! Font Awesome Pro 6.1.1 by @fontawesome - https://fontawesome.com License - https://fontawesome.com/license (Commercial License) Copyright 2022 Fonticons, Inc. --><path d="M160 296C160 309.3 149.3 320 136 320C122.7 320 112 309.3 112 296C112 282.7 122.7 272 136 272C149.3 272 160 282.7 160 296zM416 296C416 282.7 426.7 272 440 272C453.3 272 464 282.7 464 296C464 309.3 453.3 320 440 320C426.7 320 416 309.3 416 296zM56.44 224H32C23.16 224 16 216.8 16 208C16 199.2 23.16 192 32 192H84.1L114.1 89.01C125.1 55.17 156.3 32 191.6 32H384.4C419.7 32 450.9 55.17 461 89.01L491.9 192H544C552.8 192 560 199.2 560 208C560 216.8 552.8 224 544 224H519.6C534.8 240.1 544 263.4 544 288V464C544 472.8 536.8 480 528 480C519.2 480 512 472.8 512 464V416H64V464C64 472.8 56.84 480 48 480C39.16 480 32 472.8 32 464V288C32 263.4 41.24 240.1 56.44 224zM191.6 64C170.4 64 151.7 77.9 145.6 98.21L117.3 192.6C120.8 192.2 124.4 192 128 192H448C451.6 192 455.2 192.2 458.7 192.6L430.4 98.21C424.3 77.9 405.6 64 384.4 64H191.6zM106.7 227.9L106.3 227.8C81.62 236.7 64 260.3 64 288V384H512V288C512 260.3 494.4 236.7 469.7 227.8L469.3 227.9L469.2 227.6C462.5 225.3 455.4 224 448 224H128C120.6 224 113.5 225.3 106.8 227.6L106.7 227.9z"/></svg>
